X: 2
T: An Irish Dump
%R: _
B: "The Hibernian Muse" p.1 #2
F: http://imslp.org/wiki/The_Hibernian_Muse_%28Various%29
Z: 2015 John Chambers <jc:trillian.mit.edu>
P: No. II.
M: C
L: 1/8
K: D
% - - - - - - - - - - - - - - - - - - - - - - - - - - - - -
V: 1
F2 F2 A3 G | F2 F2 A3 G | HF2 (FE/D/) TED D2 |\
F2 F2 A3 G | F2 F2 A3 G | HF2 (FE/D/) (HF2  {DE}D2 ) |]
% - - - - - - - - - - - - - - - - - - - - - - - - - - - - -
V: 2 clef=bass middle=d
d2 d2 f3 e | d2 D2 f3 e | Hd2 z2 AD D2 |\
d2 d2 f3 e | d2 D2 f3 e | Hd2 z2 A2 D2 |]

%%sep 2 1 500
%%sep 1 1 500

